src/assets/images/footer-logo-2.svg

<svg width="135" height="39" viewBox="0 0 135 39" fill="none" xmlns="http://www.w3.org/2000/svg">
<g clip-path="url(#clip0_342_931)">
<path d="M10.6205 11.1656H6.37615V28.7717H3.01824V11.1656H0.399414V8.37316H3.01824V6.92089C3.01824 4.63907 3.60139 2.96918 4.77196 1.91553C5.94039 0.861885 7.81587 0.333984 10.3984 0.333984V3.1631C8.92236 3.1631 7.88209 3.45614 7.27972 4.03791C6.67734 4.62183 6.37615 5.58282 6.37615 6.92305V8.37531H10.6205V11.1678V11.1656Z" fill="white"/>
<path d="M13.4253 13.008C14.2605 11.4329 15.4118 10.2112 16.875 9.3407C18.3382 8.47236 19.9681 8.03711 21.7645 8.03711C23.5609 8.03711 25.0733 8.4228 26.3763 9.19203C27.6793 9.96125 28.6512 10.9287 29.292 12.0944V8.37324H32.6863V28.7696H29.292V24.973C28.6277 26.1646 27.6366 27.1514 26.3208 27.9336C25.0049 28.7157 23.4734 29.1057 21.7261 29.1057C19.9787 29.1057 18.3062 28.6597 16.8558 27.7655C15.4033 26.8735 14.2605 25.6194 13.4253 24.0056C12.5879 22.3939 12.1714 20.5559 12.1714 18.496C12.1714 16.4361 12.5901 14.5809 13.4253 13.0058V13.008ZM28.3693 14.5163C27.7541 13.3743 26.9231 12.4995 25.8786 11.8919C24.8319 11.2842 23.6827 10.9804 22.4288 10.9804C21.1749 10.9804 20.03 11.2778 18.9961 11.8746C17.9623 12.4693 17.1378 13.3398 16.5247 14.4797C15.9095 15.6216 15.6019 16.9619 15.6019 18.5003C15.6019 20.0388 15.9095 21.4221 16.5247 22.577C17.1399 23.7298 17.9644 24.611 18.9961 25.2187C20.03 25.8263 21.1728 26.1301 22.4288 26.1301C23.6848 26.1301 24.834 25.8263 25.8786 25.2187C26.9231 24.611 27.7541 23.7298 28.3693 22.577C28.9844 21.4242 29.292 20.0776 29.292 18.5391C29.292 17.0006 28.9844 15.6604 28.3693 14.5184V14.5163Z" fill="white"/>
<path d="M40.2501 28.3059C39.0197 27.7716 38.0478 27.0282 37.3343 26.0737C36.6209 25.1191 36.2278 24.0202 36.1531 22.7791H39.6221C39.7203 23.7962 40.1945 24.6279 41.0426 25.2721C41.8906 25.9185 43.0035 26.2396 44.3812 26.2396C45.6608 26.2396 46.669 25.9552 47.4081 25.3842C48.145 24.8132 48.5145 24.0935 48.5145 23.2252C48.5145 22.3568 48.1215 21.6673 47.3333 21.2342C46.5451 20.8011 45.3275 20.3723 43.6806 19.95C42.1789 19.5536 40.955 19.1506 40.0087 18.7412C39.0624 18.3318 38.2507 17.7242 37.5736 16.9184C36.8964 16.1125 36.5589 15.0524 36.5589 13.7359C36.5589 12.693 36.8665 11.7385 37.4817 10.8701C38.0969 10.0018 38.9706 9.31229 40.1005 8.80378C41.2327 8.29527 42.5229 8.04102 43.9754 8.04102C46.214 8.04102 48.0211 8.61201 49.3989 9.754C50.7767 10.896 51.5136 12.4581 51.6119 14.4448H48.2539C48.1792 13.3782 47.7562 12.5228 46.9808 11.8764C46.2054 11.2321 45.1673 10.9089 43.8622 10.9089C42.6574 10.9089 41.6962 11.1696 40.9849 11.6911C40.2714 12.2125 39.9147 12.8955 39.9147 13.738C39.9147 14.4081 40.1305 14.9597 40.5598 15.395C40.9892 15.8302 41.5317 16.1771 42.1832 16.4379C42.8347 16.6986 43.7383 16.9895 44.896 17.3127C46.3464 17.7091 47.5277 18.1013 48.4376 18.4848C49.3476 18.8705 50.1294 19.4458 50.7809 20.215C51.4324 20.9843 51.7699 21.9884 51.7956 23.2295C51.7956 24.3456 51.488 25.3518 50.8728 26.2439C50.2576 27.1381 49.3903 27.8384 48.271 28.3469C47.1517 28.8554 45.8658 29.1096 44.4154 29.1096C42.8646 29.1096 41.4762 28.8425 40.2458 28.3102L40.2501 28.3059Z" fill="white"/>
<path d="M59.511 11.1654V23.1886C59.511 24.1819 59.7204 24.8822 60.1391 25.2916C60.5577 25.701 61.284 25.9057 62.3157 25.9057H64.7871V28.7714H61.7603C59.8913 28.7714 58.4879 28.3383 57.5544 27.4678C56.6188 26.5995 56.1531 25.1731 56.1531 23.1865V11.1633H53.5343V8.37077H56.1531V3.23828H59.511V8.37508H64.7871V11.1676H59.511V11.1654Z" fill="white"/>
<path d="M67.7392 13.0082C68.5744 11.4332 69.7258 10.2114 71.189 9.34095C72.6522 8.4726 74.2948 8.03735 76.1148 8.03735C77.6891 8.03735 79.1523 8.40365 80.5066 9.13625C81.8587 9.86885 82.8925 10.8298 83.606 12.0214V1.22852H87.0002V28.772H83.606V24.9388C82.9417 26.154 81.9569 27.1538 80.6539 27.936C79.3488 28.7181 77.8236 29.1081 76.0785 29.1081C74.3333 29.1081 72.6522 28.6621 71.189 27.7679C69.7258 26.8759 68.5744 25.6218 67.7392 24.008C66.9019 22.3962 66.4854 20.5583 66.4854 18.4984C66.4854 16.4385 66.904 14.5833 67.7392 13.0082ZM82.6832 14.5165C82.068 13.3745 81.2371 12.4997 80.1926 11.8921C79.1459 11.2845 77.9967 10.9807 76.7428 10.9807C75.4889 10.9807 74.344 11.278 73.3101 11.8749C72.2763 12.4696 71.4517 13.3401 70.8387 14.4799C70.2235 15.6219 69.9159 16.9621 69.9159 18.5006C69.9159 20.039 70.2235 21.4223 70.8387 22.5772C71.4539 23.73 72.2784 24.6113 73.3101 25.2189C74.344 25.8265 75.4868 26.1303 76.7428 26.1303C77.9988 26.1303 79.148 25.8265 80.1926 25.2189C81.2371 24.6113 82.068 23.73 82.6832 22.5772C83.2984 21.4245 83.606 20.0778 83.606 18.5393C83.606 17.0009 83.2984 15.6607 82.6832 14.5187V14.5165Z" fill="#00ADEF"/>
<path d="M109.51 8.375V28.7714H106.152V25.7569C105.511 26.7998 104.621 27.6121 103.478 28.1939C102.333 28.7778 101.073 29.0687 99.695 29.0687C98.1207 29.0687 96.7066 28.7412 95.4506 28.0819C94.1967 27.4247 93.2056 26.4378 92.4793 25.1235C91.753 23.8091 91.3899 22.2082 91.3899 20.3228V8.375H94.7115V19.8768C94.7115 21.8871 95.2156 23.432 96.2238 24.5115C97.2321 25.591 98.6098 26.1319 100.357 26.1319C102.104 26.1319 103.568 25.5738 104.602 24.4577C105.635 23.3415 106.152 21.7169 106.152 19.5816V8.37931H109.51V8.375Z" fill="#00ADEF"/>
<path d="M120.413 9.21122C121.729 8.42906 123.26 8.03906 125.007 8.03906C126.755 8.03906 128.434 8.47431 129.897 9.34265C131.36 10.211 132.511 11.4327 133.347 13.0099C134.182 14.585 134.601 16.4144 134.601 18.5001C134.601 20.5859 134.182 22.3958 133.347 24.0097C132.509 25.6235 131.36 26.8754 129.897 27.7696C128.434 28.6638 126.804 29.1098 125.007 29.1098C123.211 29.1098 121.767 28.7198 120.451 27.9377C119.135 27.1555 118.131 26.1816 117.444 25.0159V38.4526H114.086V8.37519H117.444V12.1351C118.108 10.9694 119.097 9.99553 120.415 9.21337L120.413 9.21122ZM130.247 14.4773C129.632 13.3353 128.801 12.467 127.757 11.8723C126.71 11.2776 125.561 10.9781 124.307 10.9781C123.053 10.9781 121.94 11.2819 120.893 11.8895C119.847 12.4971 119.011 13.3784 118.383 14.5333C117.755 15.6861 117.441 17.022 117.441 18.5346C117.441 20.0472 117.755 21.4197 118.383 22.5725C119.011 23.7252 119.847 24.6065 120.893 25.2141C121.938 25.8218 123.076 26.1256 124.307 26.1256C125.537 26.1256 126.712 25.8218 127.757 25.2141C128.801 24.6065 129.632 23.7252 130.247 22.5725C130.862 21.4197 131.17 20.0601 131.17 18.4958C131.17 16.9315 130.862 15.6171 130.247 14.4751V14.4773Z" fill="#00ADEF"/>
</g>
<defs>
<clipPath id="clip0_342_931">
<rect width="135" height="39" fill="white"/>
</clipPath>
</defs>
</svg>

<svg xmlns="http://www.w3.org/2000/svg" width="135" height="39" fill="none"><g clip-path="url(#a)"><path fill="#fff" d="M10.62 11.166H6.377v17.606H3.018V11.166H.4V8.373h2.62V6.921c0-2.282.582-3.952 1.753-5.005C5.94.862 7.816.334 10.398.334v2.83c-1.476 0-2.516.292-3.118.874-.603.584-.904 1.545-.904 2.885v1.452h4.244v2.793-.002ZM13.425 13.008c.835-1.575 1.987-2.797 3.45-3.667 1.463-.869 3.093-1.304 4.89-1.304 1.796 0 3.308.386 4.611 1.155 1.303.77 2.275 1.737 2.916 2.902v-3.72h3.394V28.77h-3.394v-3.797c-.664 1.192-1.655 2.178-2.971 2.96-1.316.783-2.848 1.173-4.595 1.173-1.747 0-3.42-.446-4.87-1.34-1.453-.892-2.596-2.147-3.43-3.76-.838-1.612-1.255-3.45-1.255-5.51 0-2.06.42-3.915 1.254-5.49v.002Zm14.944 1.508c-.615-1.142-1.446-2.017-2.49-2.624a6.746 6.746 0 0 0-3.45-.912c-1.254 0-2.399.298-3.433.895-1.034.594-1.858 1.465-2.471 2.605-.615 1.142-.923 2.482-.923 4.02 0 1.539.307 2.922.923 4.077.615 1.153 1.44 2.034 2.471 2.642 1.034.607 2.177.911 3.433.911 1.256 0 2.405-.304 3.45-.911 1.044-.608 1.875-1.49 2.49-2.642.615-1.153.923-2.5.923-4.038 0-1.538-.308-2.879-.923-4.02v-.003ZM40.25 28.306c-1.23-.534-2.202-1.278-2.916-2.232-.713-.955-1.106-2.054-1.18-3.295h3.468c.098 1.017.572 1.849 1.42 2.493.849.647 1.962.968 3.34.968 1.279 0 2.287-.285 3.026-.856.737-.57 1.106-1.29 1.106-2.159 0-.868-.393-1.558-1.18-1.99-.789-.434-2.007-.863-3.653-1.285-1.502-.396-2.726-.8-3.672-1.209a6.533 6.533 0 0 1-2.435-1.823c-.678-.805-1.015-1.866-1.015-3.182 0-1.043.308-1.998.923-2.866.615-.868 1.489-1.558 2.618-2.066 1.133-.509 2.423-.763 3.875-.763 2.239 0 4.046.571 5.424 1.713 1.378 1.142 2.115 2.704 2.213 4.69h-3.358c-.075-1.066-.498-1.921-1.273-2.568-.776-.644-1.814-.967-3.119-.967-1.205 0-2.166.26-2.877.782-.714.521-1.07 1.204-1.07 2.047 0 .67.215 1.222.645 1.657.43.435.972.782 1.623 1.043.652.26 1.555.552 2.713.875 1.45.396 2.632.788 3.542 1.172.91.386 1.691.96 2.343 1.73.651.77.989 1.773 1.015 3.015 0 1.116-.308 2.122-.923 3.014-.615.894-1.483 1.594-2.602 2.103-1.12.508-2.405.763-3.856.763-1.55 0-2.939-.267-4.17-.8l.005-.004ZM59.511 11.165V23.19c0 .993.21 1.693.628 2.103.419.409 1.145.614 2.177.614h2.471v2.865H61.76c-1.869 0-3.272-.433-4.206-1.303-.935-.869-1.4-2.295-1.4-4.282V11.163h-2.62V8.371h2.62V3.238h3.357v5.137h5.276v2.793h-5.276v-.003Z"/><path fill="#00ADEF" d="M67.74 13.008c.834-1.575 1.986-2.797 3.449-3.667 1.463-.868 3.106-1.304 4.926-1.304 1.574 0 3.037.367 4.392 1.1 1.352.732 2.385 1.693 3.099 2.884V1.23H87v27.543h-3.394v-3.833c-.664 1.215-1.65 2.215-2.952 2.997-1.305.782-2.83 1.172-4.575 1.172-1.746 0-3.427-.446-4.89-1.34-1.463-.892-2.615-2.146-3.45-3.76-.837-1.612-1.254-3.45-1.254-5.51 0-2.06.419-3.915 1.254-5.49Zm14.943 1.509c-.615-1.143-1.446-2.017-2.49-2.625a6.747 6.747 0 0 0-3.45-.911c-1.254 0-2.399.297-3.433.894-1.034.595-1.858 1.465-2.471 2.605-.615 1.142-.923 2.482-.923 4.02 0 1.539.308 2.922.923 4.077.615 1.153 1.44 2.034 2.471 2.642 1.034.607 2.177.911 3.433.911 1.256 0 2.405-.303 3.45-.911 1.044-.608 1.875-1.489 2.49-2.642.615-1.153.923-2.5.923-4.038 0-1.538-.308-2.878-.923-4.02v-.002ZM109.51 8.375v20.396h-3.358v-3.014c-.641 1.043-1.531 1.855-2.674 2.437-1.145.584-2.405.875-3.783.875-1.574 0-2.988-.328-4.244-.987-1.254-.657-2.245-1.644-2.972-2.959-.726-1.314-1.09-2.915-1.09-4.8V8.375h3.323v11.502c0 2.01.504 3.555 1.512 4.635 1.008 1.079 2.386 1.62 4.133 1.62 1.747 0 3.211-.558 4.245-1.674 1.033-1.116 1.55-2.741 1.55-4.876V8.379h3.358v-.004ZM120.413 9.211c1.316-.782 2.847-1.172 4.594-1.172 1.748 0 3.427.435 4.89 1.304 1.463.868 2.614 2.09 3.45 3.667.835 1.575 1.254 3.404 1.254 5.49 0 2.086-.419 3.896-1.254 5.51-.838 1.613-1.987 2.865-3.45 3.76-1.463.894-3.093 1.34-4.89 1.34-1.796 0-3.24-.39-4.556-1.172-1.316-.782-2.32-1.756-3.007-2.922v13.437h-3.358V8.375h3.358v3.76c.664-1.166 1.653-2.14 2.971-2.922l-.002-.002Zm9.834 5.266c-.615-1.142-1.446-2.01-2.49-2.605a6.863 6.863 0 0 0-3.45-.894 6.618 6.618 0 0 0-3.414.912c-1.046.607-1.882 1.488-2.51 2.643-.628 1.153-.942 2.489-.942 4.002 0 1.512.314 2.885.942 4.038.628 1.152 1.464 2.034 2.51 2.641a6.672 6.672 0 0 0 3.414.912c1.23 0 2.405-.304 3.45-.912 1.044-.607 1.875-1.489 2.49-2.641.615-1.153.923-2.513.923-4.077s-.308-2.879-.923-4.02v.001Z"/></g><defs><clipPath id="a"><path fill="#fff" d="M0 0h135v39H0z"/></clipPath></defs></svg>
